assets/noto-color-emoji-svg/1f612.svg

<?xml version="1.0" encoding="UTF-8" standalone="no"?>
<!-- Generator: Adobe Illustrator 19.2.1, SVG Export Plug-In . SVG Version: 6.00 Build 0)  -->

<svg
   xmlns:dc="http://purl.org/dc/elements/1.1/"
   xmlns:cc="http://creativecommons.org/ns#"
   xmlns:rdf="http://www.w3.org/1999/02/22-rdf-syntax-ns#"
   xmlns:svg="http://www.w3.org/2000/svg"
   xmlns="http://www.w3.org/2000/svg"
   xmlns:sodipodi="http://sodipodi.sourceforge.net/DTD/sodipodi-0.dtd"
   xmlns:inkscape="http://www.inkscape.org/namespaces/inkscape"
   version="1.1"
   id="图层_1"
   x="0px"
   y="0px"
   viewBox="0 0 128 128"
   style="enable-background:new 0 0 128 128;"
   xml:space="preserve"
   inkscape:version="0.91 r13725"
   sodipodi:docname="1f612.svg"><metadata
     id="metadata39"><rdf:RDF><cc:Work
         rdf:about=""><dc:format>image/svg+xml</dc:format><dc:type
           rdf:resource="http://purl.org/dc/dcmitype/StillImage" /><dc:title></dc:title></cc:Work></rdf:RDF></metadata><defs
     id="defs37" /><sodipodi:namedview
     pagecolor="#ffffff"
     bordercolor="#666666"
     borderopacity="1"
     objecttolerance="10"
     gridtolerance="10"
     guidetolerance="10"
     inkscape:pageopacity="0"
     inkscape:pageshadow="2"
     inkscape:window-width="1024"
     inkscape:window-height="717"
     id="namedview35"
     showgrid="false"
     inkscape:zoom="2.6074563"
     inkscape:cx="61.131636"
     inkscape:cy="58.305085"
     inkscape:window-x="0"
     inkscape:window-y="0"
     inkscape:window-maximized="1"
     inkscape:current-layer="g7" /><g
     id="g3"><path
       style="fill:#FCC21B;"
       d="M64,9.9C1.99,9.9,0.51,79.42,0.51,93.19c0,13.76,28.43,24.91,63.49,24.91   c35.07,0,63.49-11.16,63.49-24.91C127.49,79.42,126.02,9.9,64,9.9z"
       id="path5" /></g><g
     id="g7"><g
       id="g9"><g
         id="g15"><path
           style="fill:#2f2f2f"
           d="M 40.660156 52.580078 C 40.65958 52.583297 40.658777 52.586624 40.658203 52.589844 L 29.419922 52.589844 C 27.759922 52.589844 26.419922 53.929844 26.419922 55.589844 C 26.419922 57.249844 27.759922 58.589844 29.419922 58.589844 L 41.220703 58.589844 C 42.510703 61.979844 45.389219 64.329063 48.699219 64.289062 C 52.681342 64.249341 55.951054 60.80638 56.603516 56.292969 C 56.611141 56.261072 56.624259 56.231514 56.630859 56.199219 C 56.630859 56.172442 56.638913 56.145918 56.640625 56.119141 C 56.640831 56.115918 56.640625 56.112598 56.640625 56.109375 C 56.670625 55.939375 56.689453 55.760078 56.689453 55.580078 C 56.689453 53.920078 55.349453 52.580078 53.689453 52.580078 L 40.660156 52.580078 z M 41.226562 58.580078 L 41.244141 58.580078 L 41.228516 58.585938 C 41.227785 58.58403 41.227292 58.581986 41.226562 58.580078 z "
           id="path19" /></g></g><g
       id="g21"><path
         style="fill:#2F2F2F;"
         d="M101.53,56.12c0,0.03-0.01,0.06-0.01,0.09C101.53,56.18,101.52,56.15,101.53,56.12z"
         id="path23" /><g
         id="g27"><path
           style="fill:#2f2f2f"
           d="M 85.550781 52.580078 C 85.550205 52.583278 85.549428 52.586544 85.548828 52.589844 L 74.310547 52.589844 C 72.650547 52.589844 71.310547 53.929844 71.310547 55.589844 C 71.310547 57.249844 72.650547 58.589844 74.310547 58.589844 L 86.109375 58.589844 C 87.399375 61.979844 90.279844 64.329063 93.589844 64.289062 C 97.576016 64.249302 100.8483 60.799476 101.49609 56.279297 C 101.50209 56.251967 101.51393 56.226839 101.51953 56.199219 C 101.51953 56.169219 101.5293 56.139375 101.5293 56.109375 C 101.5593 55.939375 101.58008 55.760078 101.58008 55.580078 C 101.58008 53.920078 100.24008 52.580078 98.580078 52.580078 L 85.550781 52.580078 z M 86.115234 58.580078 L 86.273438 58.589844 L 86.119141 58.589844 C 86.117941 58.586644 86.116434 58.583378 86.115234 58.580078 z "
           id="path31" /></g></g></g><path
     style="fill:none;stroke:#2F2F2F;stroke-width:6;stroke-linecap:round;stroke-miterlimit:10;"
     d="M50.02,85.11  c7.34-6.96,20.62-6.96,27.95,0"
     id="path33" /></svg>

<?xml version="1.0" encoding="utf-8"?>
<!-- Generator: Adobe Illustrator 19.2.1, SVG Export Plug-In . SVG Version: 6.00 Build 0)  -->
<svg version="1.1" id="图层_1" xmlns="http://www.w3.org/2000/svg" xmlns:xlink="http://www.w3.org/1999/xlink" x="0px" y="0px"
	 viewBox="0 0 128 128" style="enable-background:new 0 0 128 128;" xml:space="preserve">
<g>
	<path style="fill:#FCC21B;" d="M64,9.9C1.99,9.9,0.51,79.42,0.51,93.19c0,13.76,28.43,24.91,63.49,24.91
		c35.07,0,63.49-11.16,63.49-24.91C127.49,79.42,126.02,9.9,64,9.9z"/>
</g>
<g>
	<g>
		<path style="fill:#2F2F2F;" d="M56.64,56.12c0,0.03-0.01,0.06-0.01,0.09C56.63,56.18,56.63,56.15,56.64,56.12z"/>
		<path style="fill:#2F2F2F;" d="M40.66,52.59H29.42c-1.66,0-3,1.34-3,3s1.34,3,3,3h11.81c-0.46-1.2-0.72-2.52-0.73-3.91
			C40.48,53.96,40.54,53.26,40.66,52.59z"/>
		<g>
			<path style="fill:#2F2F2F;" d="M53.69,58.59H41.22c1.29,3.39,4.17,5.74,7.48,5.7c4.01-0.04,7.3-3.53,7.92-8.09
				C56.35,57.57,55.14,58.59,53.69,58.59z"/>
			<path style="fill:#2F2F2F;" d="M56.63,56.2c0-0.03,0.01-0.06,0.01-0.09c0.03-0.17,0.05-0.35,0.05-0.53c0-1.66-1.34-3-3-3H40.66
				c-0.12,0.67-0.18,1.37-0.17,2.09c0.01,1.4,0.28,2.72,0.73,3.91h12.47C55.14,58.59,56.35,57.57,56.63,56.2z"/>
		</g>
	</g>
	<g>
		<path style="fill:#2F2F2F;" d="M101.53,56.12c0,0.03-0.01,0.06-0.01,0.09C101.53,56.18,101.52,56.15,101.53,56.12z"/>
		<path style="fill:#2F2F2F;" d="M85.55,52.59H74.31c-1.66,0-3,1.34-3,3s1.34,3,3,3h11.81c-0.46-1.2-0.72-2.52-0.73-3.91
			C85.37,53.96,85.44,53.26,85.55,52.59z"/>
		<g>
			<path style="fill:#2F2F2F;" d="M98.58,58.59H86.11c1.29,3.39,4.17,5.74,7.48,5.7c4.01-0.04,7.3-3.53,7.92-8.09
				C101.24,57.57,100.03,58.59,98.58,58.59z"/>
			<path style="fill:#2F2F2F;" d="M101.52,56.2c0-0.03,0.01-0.06,0.01-0.09c0.03-0.17,0.05-0.35,0.05-0.53c0-1.66-1.34-3-3-3H85.55
				c-0.12,0.67-0.18,1.37-0.17,2.09c0.01,1.4,0.28,2.72,0.73,3.91h12.47C100.03,58.59,101.24,57.57,101.52,56.2z"/>
		</g>
	</g>
</g>
<path style="fill:none;stroke:#2F2F2F;stroke-width:6;stroke-linecap:round;stroke-miterlimit:10;" d="M50.02,85.11
	c7.34-6.96,20.62-6.96,27.95,0"/>
</svg>
